X: 4
T: Missa [sine nomine] &mdash; Sanctus
C: Anonymous
%%abc-version 2.0
%%abcx-abcm2ps-target-version 5.9.1 (29 Sep 2008)
%%abc-creator hum2abc beta
%%abcx-conversion-date 2022/03/06 13:05:57
%%abc-copyright Copyright 2016, Kolb, Paul
%%abc-edited-by Zybina, Karina
%%humdrum-veritas 160486896
%%humdrum-veritas-data 2455029610
%%linebreak <none>
%%barnumbers 0
L: 1/4
M: 2/2
N: Derived from Ano0207d-Missa_sine_nomine_Sanctus.krn
%%staves [1 2 3 4]
V: 1 clef=treble
V: 2 clef=treble-8
V: 3 clef=treble-8
V: 4 clef=bass
K: F
[V:1] G4- | 
[V:2] d4- | 
[V:3] G4- | 
[V:4] G,,4- | 
[V:1] G4 | 
[V:2] d4 | 
[V:3] G4 | 
[V:4] G,,4 | 
[V:1] F4 | 
[V:2] d3c | 
[V:3] A4 | 
[V:4] D,4 | 
[V:1] G2A2- | 
[V:2] B2A2 | 
[V:3] B2c2- | 
[V:4] G,2F,2- | 
[V:1] AGFE | 
[V:2] F4 | 
[V:3] c2d2- | 
[V:4] F,E,D,C, | 
[V:1] D2G2 | 
[V:2] F2Gd- | 
[V:3] dcB2 | 
[V:4] B,,2G,,2 | 
[V:1] AB2A- | 
[V:2] d/e/fge | 
[V:3] Ad2c | 
[V:4] D,2G,,A,, | 
[V:1] AG2^F | 
[V:2] dcd2 | 
[V:3] BGA2 | 
[V:4] B,,_E,D,2 | 
[V:1] G2B2 | 
[V:2] B>cdG | 
[V:3] G2FB- | 
[V:4] _E,2D,E, | 
[V:1] c2dc- | 
[V:2] A/G/F/E/DG- | 
[V:3] BABG | 
[V:4] C,2B,,C, | 
[V:1] cB/A/B2 | 
[V:2] G^FG2 | 
[V:3] A2D2 | 
[V:4] A,,2G,,2 | 
[V:1] G2EF | 
[V:2] z2cd- | 
[V:3] EG2A- | 
[V:4] C,>D,E,D, | 
[V:1] DE2D- | 
[V:2] dc2A- | 
[V:3] A/F/G2D | 
[V:4] F,C,2D, | 
[V:1] D^CD2 | 
[V:2] A2Ff | 
[V:3] E2D2 | 
[V:4] A,,2B,,2 | 
[V:1] z4 | 
[V:2] _edc/B/c | 
[V:3] z4 | 
[V:4] zF,2_E, | 
[V:1] z4 | 
[V:2] Bf_ed- | 
[V:3] z4 | 
[V:4] D,C,/B,,/C,B,, | 
[V:1] z4 | 
[V:2] dc2B- | 
[V:3] z4 | 
[V:4] F,2_E,D, | 
[V:1] z4 | 
[V:2] BAB2 | 
[V:3] z4 | 
[V:4] C,2B,,2 | 
[V:1] d>cBA/G/ | 
[V:2] z4 | 
[V:3] z2d2 | 
[V:4] z4 | 
[V:1] AGd2 | 
[V:2] z4 | 
[V:3] cB2A/G/ | 
[V:4] z4 | 
[V:1] cBA/G/F | 
[V:2] z4 | 
[V:3] AGd2 | 
[V:4] z4 | 
[V:1] EG2^F | 
[V:2] z4 | 
[V:3] cBA2 | 
[V:4] z4 | 
[V:1] G4 | 
[V:2] z4 | 
[V:3] G4 | 
[V:4] z4 | 
[V:1] A3A | 
[V:2] f3f | 
[V:3] c3c | 
[V:4] F,3F, | 
[V:1] A2G2 | 
[V:2] c>d e/f/g- | 
[V:3] c2c2- | 
[V:4] F,2E,2 | 
[V:1] A2B3/G/ | 
[V:2] g/f/f2e | 
[V:3] c2dB | 
[V:4] F,A,G,2 | 
[V:1] A2FG | 
[V:2] f>ecB | 
[V:3] c2AB | 
[V:4] F,A,2G, | 
[V:1] AF2E | 
[V:2] Ac3 | 
[V:3] cAG2 | 
[V:4] F,2C,2 | 
[V:1] F4 | 
[V:2] A2F2 | 
[V:3] F2z2 | 
[V:4] D,4 | 
[V:1] z4 | 
[V:2] B2c2 | 
[V:3] z4 | 
[V:4] B,,2z2 | 
[V:1] F2B2 | 
[V:2] d3c | 
[V:3] z4 | 
[V:4] z4 | 
[V:1] c2d2- | 
[V:2] A2GB- | 
[V:3] z4 | 
[V:4] z4 | 
[V:1] dc/B/A2 | 
[V:2] BA/G/ F/G/A/B/ | 
[V:3] z4 | 
[V:4] z4 | 
[V:1] GB2A/G/ | 
[V:2] cBd2- | 
[V:3] z2G2 | 
[V:4] z2G,,2 | 
[V:1] F/G/A/B/c2 | 
[V:2] d2c3/d/ | 
[V:3] A>FA2 | 
[V:4] D,>C,A,,A, | 
[V:1] BA>GB- | 
[V:2] ef2f- | 
[V:3] Bc2d- | 
[V:4] G,F,>E,D,/C,/ | 
[V:1] BG2^F | 
[V:2] f/e<dc/B/A/ | 
[V:3] dBA2 | 
[V:4] B,,>C,D,2 | 
[V:1] G4- | 
[V:2] B3c | 
[V:3] G4- | 
[V:4] G,,4- | 
[V:1] G4 ||  
[V:2] d4 ||  
[V:3] G4 ||  
[V:4] G,,4 ||  
[V:1] [M:2/2]z4 | 
[V:2] [M:2/2]z4 | 
[V:3] [M:2/2]B4- | 
[V:4] [M:2/2]G,3_E, | 
[V:1] z4 | 
[V:2] z4 | 
[V:3] B4 | 
[V:4] D,G,2G,,- | 
[V:1] z4 | 
[V:2] z4 | 
[V:3] B4 | 
[V:4] G,,/A,,/B,,/C,/D,B,, | 
[V:1] z4 | 
[V:2] z4 | 
[V:3] B3A/G/ | 
[V:4] _E,>D, B,,/C,/D,/E,/ | 
[V:1] z4 | 
[V:2] z4 | 
[V:3] AGA2 | 
[V:4] F,G,2^F, | 
[V:1] B3A | 
[V:2] d4 | 
[V:3] G4 | 
[V:4] G,2z2 | 
[V:1] G2F2 | 
[V:2] d4 | 
[V:3] B3A | 
[V:4] G,,2D,2 | 
[V:1] G2DA | 
[V:2] B>c d/_e/f | 
[V:3] G2F2 | 
[V:4] _E,2zD, | 
[V:1] B2AF | 
[V:2] dgf3/e/ | 
[V:3] G2DA | 
[V:4] B,,G,,D,2 | 
[V:1] G2Fc- | 
[V:2] d/c/Bcf | 
[V:3] B2AF | 
[V:4] G,,2zF,- | 
[V:1] c/A/BAd- | 
[V:2] decf- | 
[V:3] G2FB | 
[V:4] F,E,F,B,, | 
[V:1] d/c/B2A | 
[V:2] fef2 | 
[V:3] ABc2 | 
[V:4] F,G,F,2 | 
[V:1] B4 | 
[V:2] f>fd2 | 
[V:3] B2z2 | 
[V:4] z2G,3/G,/ | 
[V:1] z2B3/B/ | 
[V:2] f2d2 | 
[V:3] c>cB2 | 
[V:4] F,2G,2 | 
[V:1] A2B2 | 
[V:2] z2d2 | 
[V:3] c2B2 | 
[V:4] F,2z2 | 
[V:1] A2z2 | 
[V:2] f>d e/d/g- | 
[V:3] z4 | 
[V:4] D,2G,2 | 
[V:1] c2B3/G/ | 
[V:2] g^fgd- | 
[V:3] z4 | 
[V:4] A,2G,2 | 
[V:1] AG2^F | 
[V:2] dBA2 | 
[V:3] z2c2 | 
[V:4] z4 | 
[V:1] G2z2 | 
[V:2] z2zd | 
[V:3] B>GAG- | 
[V:4] G,D,2B,, | 
[V:1] z4 | 
[V:2] cd2c | 
[V:3] G^FG2 | 
[V:4] A,,D,_E,2 | 
[V:1] z2d2 | 
[V:2] d4 | 
[V:3] A4 | 
[V:4] D,4 | 
[V:1] dd2c/B/ | 
[V:2] f>ga2 | 
[V:3] d4- | 
[V:4] z4 | 
[V:1] A2z2 | 
[V:2] z2a2 | 
[V:3] d4 | 
[V:4] D,2D,D,- | 
[V:1] z2c2 | 
[V:2] aa2g/f/ | 
[V:3] d2c2- | 
[V:4] D,C,/B,,/A,,2 | 
[V:1] cc2B/A/ | 
[V:2] e2z2 | 
[V:3] c4- | 
[V:4] z2C,2 | 
[V:1] G2z2 | 
[V:2] g2gg- | 
[V:3] c2c2 | 
[V:4] C,C,2B,,/A,,/ | 
[V:1] B2BB- | 
[V:2] gf/e/d2 | 
[V:3] B4- | 
[V:4] G,,2z2 | 
[V:1] BA/G/F2 | 
[V:2] z2f2 | 
[V:3] B4 | 
[V:4] B,,2B,,B,,- | 
[V:1] z2F3/G/ | 
[V:2] ff2e/d/ | 
[V:3] B2A2- | 
[V:4] B,,A,,/G,,/F,,2 | 
[V:1] A/B<cB/A- | 
[V:2] c2ze | 
[V:3] A4 | 
[V:4] zA,,>B,,C, | 
[V:1] AGF3/E/ | 
[V:2] dcd2 | 
[V:3] FGA2 | 
[V:4] D,_E,D,2 | 
[V:1] G>FDF- | 
[V:2] B>cd2 | 
[V:3] G>AB2 | 
[V:4] _E,>D,B,,D,- | 
[V:1] FE>FG- | 
[V:2] z2G2- | 
[V:3] A>Bc2 | 
[V:4] D,C,>D,_E,- | 
[V:1] GF2B- | 
[V:2] Gd2B | 
[V:3] B>cd2 | 
[V:4] E,D,2G,- | 
[V:1] B/A<GE/A- | 
[V:2] G2gf | 
[V:3] B2c2 | 
[V:4] G,/F,<_E,C,/F,- | 
[V:1] A/G/^F/E/F2 | 
[V:2] cf>ed | 
[V:3] A4 | 
[V:4] F,/_E,/D,/C,/D,2 | 
[V:1] G4 ||  
[V:2] d4 ||  
[V:3] G4 ||  
[V:4] G,,4 ||  
[V:1] [M:2/2]z4 | 
[V:2] [M:2/2]z4 | 
[V:3] [M:2/2]G2FG- | 
[V:4] [M:2/2]z4 | 
[V:1] G2FG- | 
[V:2] z4 | 
[V:3] GF/E/DB- | 
[V:4] z4 | 
[V:1] GF/E/DB- | 
[V:2] z4 | 
[V:3] BA/G/FG- | 
[V:4] z4 | 
[V:1] BA/G/FG- | 
[V:2] z4 | 
[V:3] G/A/B/c/d_e- | 
[V:4] z4 | 
[V:1] G/A/B/c/d2 | 
[V:2] z4 | 
[V:3] ed2c/B/ | 
[V:4] z4 | 
[V:1] cA2G/F/ | 
[V:2] z4 | 
[V:3] A2F/G/A/B/ | 
[V:4] z4 | 
[V:1] EF>GB | 
[V:2] z4 | 
[V:3] cd>cd- | 
[V:4] z4 | 
[V:1] AG2^F | 
[V:2] z4 | 
[V:3] dBA2 | 
[V:4] z4 | 
[V:1] G2z2 | 
[V:2] zGG3/A/ | 
[V:3] G2z2 | 
[V:4] z2zG,, | 
[V:1] z4 | 
[V:2] B/c<de/f- | 
[V:3] z4 | 
[V:4] G,,>A,, B,,/C,/D,- | 
[V:1] z4 | 
[V:2] fe/d<cd/ | 
[V:3] z4 | 
[V:4] D,/E,/F,2E,/D,/ | 
[V:1] z4 | 
[V:2] e/f<gf/e/d/ | 
[V:3] z4 | 
[V:4] C,>D, E,/F,/G,- | 
[V:1] z4 | 
[V:2] ed2^c | 
[V:3] z4 | 
[V:4] G,F,E,2 | 
[V:1] z2zE | 
[V:2] d2z2 | 
[V:3] zAcc | 
[V:4] D,2z2 | 
[V:1] GGGF/E/ | 
[V:2] z4 | 
[V:3] cB/A<GA/ | 
[V:4] z4 | 
[V:1] D/E/F/G/ A/B/c- | 
[V:2] z4 | 
[V:3] B>AFA | 
[V:4] z4 | 
[V:1] c/B/B2A | 
[V:2] z4 | 
[V:3] Bdc2 | 
[V:4] z4 | 
[V:1] B2z2 | 
[V:2] zd2d | 
[V:3] B2z2 | 
[V:4] zB,,2B,, | 
[V:1] z4 | 
[V:2] dc/B/ A/G/g/^f/ | 
[V:3] z4 | 
[V:4] B,,/C,/D,/_E,/F,G, | 
[V:1] z4 | 
[V:2] ^f/e/g2d- | 
[V:3] z4 | 
[V:4] A,B,2A,/G,/ | 
[V:1] z2c2 | 
[V:2] dc/B/A2 | 
[V:3] z4 | 
[V:4] F,G,2^F, | 
[V:1] B2GA- | 
[V:2] G2EF | 
[V:3] z4 | 
[V:4] G,2z2 | 
[V:1] AFE2 | 
[V:2] D2A2 | 
[V:3] zd2c | 
[V:4] z4 | 
[V:1] zd2c/B/ | 
[V:2] cBG2 | 
[V:3] AB2G | 
[V:4] z2B,2 | 
[V:1] cA2B- | 
[V:2] zefd | 
[V:3] Fc2B | 
[V:4] A,2F,G,- | 
[V:1] B/A/G2^F | 
[V:2] Bcd2 | 
[V:3] G2A2 | 
[V:4] G,E,D,2 | 
[V:1] G2z2 | 
[V:2] B>c d/_e/f | 
[V:3] G2zF- | 
[V:4] _E,2D,2 | 
[V:1] z4 | 
[V:2] d_e2c | 
[V:3] F_EC2 | 
[V:4] B,,C,2A,, | 
[V:1] d2Bc- | 
[V:2] B>cd_e- | 
[V:3] DG2C- | 
[V:4] G,,2z2 | 
[V:1] cAG2 | 
[V:2] ed2c | 
[V:3] C/D/F_E2 | 
[V:4] z4 | 
[V:1] F2z2 | 
[V:2] dfe/d/c/B/ | 
[V:3] D2z2 | 
[V:4] A,2G,2 | 
[V:1] z4 | 
[V:2] c/B/A/G/FB- | 
[V:3] z4 | 
[V:4] E,F,2D, | 
[V:1] z2B2 | 
[V:2] BAB2 | 
[V:3] z2G2 | 
[V:4] C,2z2 | 
[V:1] A2FG- | 
[V:2] c2dB | 
[V:3] F2D_E- | 
[V:4] z4 | 
[V:1] GF/_E<DB,/ | 
[V:2] G>A B/c/d/e/ | 
[V:3] ED/C/B,B- | 
[V:4] z2G,2 | 
[V:1] C2zG- | 
[V:2] f2z2 | 
[V:3] BAB2- | 
[V:4] F,2D,_E,- | 
[V:1] GF/_E/DF | 
[V:2] z2f2 | 
[V:3] B4- | 
[V:4] E,C,B,,2 | 
[V:1] GB>AG- | 
[V:2] d2B3/c/ | 
[V:3] B2G3/A/ | 
[V:4] z4 | 
[V:1] G/F/FEG- | 
[V:2] dc2d | 
[V:3] BcAB | 
[V:4] zA,2G, | 
[V:1] GA>GF- | 
[V:2] ecA3/B/ | 
[V:3] GcF2 | 
[V:4] E,F,2D, | 
[V:1] FEF2 | 
[V:2] c2zf- | 
[V:3] G2F3/G/ | 
[V:4] C,2z2 | 
[V:1] z4 | 
[V:2] f/e/cde- | 
[V:3] A2FG- | 
[V:4] zF,2E, | 
[V:1] z4 | 
[V:2] ef2d- | 
[V:3] GDFG | 
[V:4] C,D,2B,, | 
[V:1] z4 | 
[V:2] d^cd2 | 
[V:3] E2D3/E/ | 
[V:4] A,,2z2 | 
[V:1] D>E F/G/A- | 
[V:2] z2de | 
[V:3] FB,Bc- | 
[V:4] zB,2A, | 
[V:1] AB>AG2^F | 
[V:2] fd2cd2 | 
[V:3] cGBcA2 | 
[V:4] F,G,2_E,D,2 | 
[V:1] [M:3/2]G6 | 
[V:2] [M:3/2]d6- | 
[V:3] [M:3/2]G4B2- | 
[V:4] [M:3/2]G,,6- | 
[V:1] z6 | 
[V:2] d2f4 | 
[V:3] B2A4 | 
[V:4] G,,2D,4 | 
[V:1] G4B2- | 
[V:2] e4d2 | 
[V:3] c4B2 | 
[V:4] C,D,E,F,G,2- | 
[V:1] B2A4 | 
[V:2] g2f4 | 
[V:3] d4c2- | 
[V:4] G,2D,2F,2 | 
[V:1] c4B2 | 
[V:2] e2g4 | 
[V:3] c2d4 | 
[V:4] A,2G,4 | 
[V:1] A2>G2FE | 
[V:2] e2f4 | 
[V:3] c4d2- | 
[V:4] A,2F,E,D,C, | 
[V:1] D2E3F | 
[V:2] f2e2c2- | 
[V:3] d2c4 | 
[V:4] B,,2C,3D, | 
[V:1] G4^F2 | 
[V:2] c2d4 | 
[V:3] G2A4 | 
[V:4] _E,2D,4 | 
[V:1] G6- | 
[V:2] B4c2 | 
[V:3] G6- | 
[V:4] _E,2>D,2C,2 | 
[V:1] G6- | 
[V:2] d2_e3d/c/ | 
[V:3] G6- | 
[V:4] B,,2C,4 | 
[V:1] G4 |]  
[V:2] d4 |]  
[V:3] G4 |]  
[V:4] G,,4 |]  


